X:9961
T:Luck Penny, The
R:jig
Z:id:hn-jig-140
M:6/8
K:G
BAG AFD|~G3 FGA|BAG BdB|cAG FGA|BAG AFD|GBd ~g3|def gdB|1 cAF G2A:|2 cAF G2B||
d2g gfg|a2g fga|bag agf|def g2a|bag afd|gag fed|def gdB|1 cAF G2B:|2 cAF GBc||
dBG GFG|dBG GAB|cA=F FEF|cA=F FBc|dBG GBd|gag fed|def gdB|cAF G (3ABc||
